style-guide/assets/wds-icons-upvote-tiny.svg

<svg xmlns="http://www.w3.org/2000/svg" xmlns:xlink="http://www.w3.org/1999/xlink" viewBox="0 0 12 12">
  <defs>
    <path id="upvote-a" d="M6 2C3.794 2 2 3.794 2 6s1.794 4 4 4 4-1.794 4-4-1.794-4-4-4m0 10c-3.309 0-6-2.691-6-6s2.691-6 6-6 6 2.691 6 6-2.691 6-6 6m-.5-6.792l-.146.146a.502.502 0 0 1-.708 0 .502.502 0 0 1 0-.708l1-1a.502.502 0 0 1 .708 0l1 1a.502.502 0 0 1-.708.708L6.5 5.208V8a.5.5 0 0 1-1 0V5.208z"/>
  </defs>
  <use fill-rule="evenodd" xlink:href="#upvote-a"/>
</svg>

<svg xmlns="http://www.w3.org/2000/svg" xmlns:xlink="http://www.w3.org/1999/xlink" width="12" height="12" viewBox="0 0 12 12">
  <defs>
    <path id="upvote-a" d="M6,2 C3.794,2 2,3.794 2,6 C2,8.206 3.794,10 6,10 C8.206,10 10,8.206 10,6 C10,3.794 8.206,2 6,2 M6,12 C2.691,12 0,9.309 0,6 C0,2.691 2.691,0 6,0 C9.309,0 12,2.691 12,6 C12,9.309 9.309,12 6,12 M5.5,5.208 L5.354,5.354 C5.256,5.451 5.128,5.5 5,5.5 C4.872,5.5 4.744,5.451 4.646,5.354 C4.451,5.158 4.451,4.842 4.646,4.646 L5.646,3.646 C5.842,3.451 6.158,3.451 6.354,3.646 L7.354,4.646 C7.549,4.842 7.549,5.158 7.354,5.354 C7.256,5.451 7.128,5.5 7,5.5 C6.872,5.5 6.744,5.451 6.646,5.354 L6.5,5.208 L6.5,8 C6.5,8.276 6.276,8.5 6,8.5 C5.724,8.5 5.5,8.276 5.5,8 L5.5,5.208 Z"/>
  </defs>
  <use fill-rule="evenodd" xlink:href="#upvote-a"/>
</svg>
